X:255
T: Dang de enqing bi hai shen
N: C1751
O: China,Shandong Pingdu
S: III, 316]
R: Xiaodiao. Xin minge]
M: 2/4
L: 1/16
K: G
A2BAG4 | AGABA2E2 | d2ABG4 |
G2GEG2GA | B2E2G4 |
d2BdA2A2 | d3BA4 |
d2dBA2AG | E3GA4 |
FEDFE4
d2BdA2A2 | AFAFE2E2 | EGDEF2E2 | D8 |
d4d4 | BAGBA4 |
d2BdA2A2 | AFAFE2E2 | EGDEF2E2 | D8

@@@ Tune index: 6810
